X:1
T:Bamberger Dreher
C:traditionell
R:dreher
A:Franken, Deutschland
%%textfont Helvetica-Narrow 10pt
%%begintext align
B:"Schule fuer Drehleier", Barbara Behringer (anm: verh. Grimm), Der Verlag mit der Blume, 4.Auflage, Nuernberg 1988
N:dort ganz in C, einstimmig, seite 55
N:Gleich lautendes stueck in: "Das kleine dicke Liederbuch", seite 210 
%%endtext
F:http://simonwascher.info
Z:abc transcription Simon Wascher
M:2/4
L:1/8
K:C
G |\
cB cd | eG ce | dG AB | ce gG |
cB cd | eG ce | dG AB | c3 :|
|: e |\
d2 f2 | eG ce | dG Bd | ce ge |
d2 f2 | eG ce | dG Bd | c3 :|
%%wordsfont Times-Italic 11pt
W:aus Simon Waschers TradArchiv
